svgs/moonlight.svg

<?xml version="1.0" encoding="UTF-8" standalone="no"?>
<svg version="1.1" width="192" height="192" xmlns="http://www.w3.org/2000/svg" xmlns:xlink="http://www.w3.org/1999/xlink">
    <defs>
        <path
            id="form1"
            d="m 85.910978,16.712167 c -12.304649,1.622157 -23.857566,5.974282 -34.065284,12.779426 -4.787338,3.204748 -10.049455,7.359051 -10.049455,7.952521 0,0.15826 11.434223,11.671613 25.440158,25.519291 L 92.636991,88.166172 92.874379,78.15628 c 0.15826,-5.539069 0.15826,-21.760631 0.03956,-36.083084 l -0.197824,-25.994067 -1.424332,0.03956 c -0.791296,0.03956 -3.204747,0.276954 -5.38081,0.593472 z"/>

        <path
            id="form2"
            d="m 99.046487,26.40554 c -0.316517,12.185954 -0.276953,36.439169 0.07913,51.394658 l 0.23739,10.484669 25.440163,-25.2819 c 13.96636,-13.88724 25.40058,-25.440158 25.40058,-25.598417 0,-0.514342 -4.9456,-4.470821 -9.29772,-7.43818 C 129.43224,22.132543 116.65282,17.622157 102.2908,16.276953 L 99.283879,16 Z"/>

        <path
            id="form3"
            d="M 35.386745,43.85361 C 28.621167,51.885262 23.912956,60.075174 20.668644,69.452028 18.255192,76.3363 16.949554,82.389715 16.276952,89.907023 l -0.276953,2.8091 28.447082,0.23739 c 15.628091,0.158259 31.810089,0.118694 36.003957,-0.03956 L 88.047476,92.636993 62.923837,67.196835 C 49.076161,53.230467 37.641937,41.796242 37.444113,41.796242 c -0.158258,0 -1.068249,0.949554 -2.057368,2.057368 z"/>

        <path
            id="form4"
            d="m 129.15528,67.275964 -25.20276,25.440159 10.48467,0.276956 c 5.7369,0.158258 21.91889,0.158258 35.9644,0 24.64885,-0.276956 25.51927,-0.316522 25.51927,-1.028686 0,-2.215628 -0.94956,-8.981206 -1.81997,-12.898121 -2.17607,-9.851632 -6.17211,-19.188922 -11.55292,-27.181009 -3.24432,-4.826904 -7.39862,-10.089021 -7.91296,-10.089021 -0.15826,0.03956 -11.63205,11.473789 -25.47973,25.479722 z"/>

        <path
            id="form5"
            d="m 27.671611,99.046489 -11.592483,0.118694 v 0.989117 c 0,0.51434 0.276954,3.04649 0.593472,5.6182 1.97824,15.43027 8.189911,29.75272 18.160237,41.74086 1.226508,1.50346 2.373887,2.6904 2.571711,2.6904 0.197824,0 11.711178,-11.43422 25.598418,-25.44016 L 88.284866,99.363008 77.008901,99.12562 C 65.693372,98.888229 49.194854,98.848664 27.671611,99.046489 Z"/>

        <path
            id="form6"
            d="m 116.49456,112.10287 c 6.9634,7.16122 18.39763,18.67458 25.40059,25.63798 l 12.70029,12.66073 1.62216,-1.78041 c 10.76162,-11.82987 18.00198,-29.08012 19.54501,-46.4095 L 176,99.165185 h -36.08309 -36.08308 z"/>

        <path
            id="form7"
            d="m 67.236398,129.31356 c -13.966369,13.96636 -25.321463,25.51928 -25.20277,25.67754 0.435213,0.75174 6.330366,5.34126 9.812068,7.636 10.919881,7.31948 24.253215,11.909 37.8635,13.09595 L 92.71612,176 92.913944,149.96637 c 0.118694,-14.36201 0.118694,-30.58358 -0.03956,-36.04352 l -0.237388,-10.00989 z"/>

        <path
            id="form8"
            d="M 99.165182,139.91692 V 176 l 3.086058,-0.23739 c 17.28981,-1.54303 34.54005,-8.78339 46.36992,-19.545 l 1.78043,-1.62216 -9.8912,-9.93076 c -5.42039,-5.45993 -16.9733,-16.89417 -25.59842,-25.4006 L 99.165182,103.83383 Z"/>

        <clipPath id="clip1">
            <use xlink:href="#form1"/>
        </clipPath>
        <clipPath id="clip2">
            <use xlink:href="#form2"/>
        </clipPath>
        <clipPath id="clip3">
            <use xlink:href="#form3"/>
        </clipPath>
        <clipPath id="clip4">
            <use xlink:href="#form4"/>
        </clipPath>
        <clipPath id="clip5">
            <use xlink:href="#form5"/>
        </clipPath>
        <clipPath id="clip6">
            <use xlink:href="#form6"/>
        </clipPath>
        <clipPath id="clip7">
            <use xlink:href="#form7"/>
        </clipPath>
        <clipPath id="clip8">
            <use xlink:href="#form8"/>
        </clipPath>
    </defs>

    <use
        xlink:href="#form1"
        stroke="#000000" stroke-width="16" fill="none"
        clip-path="url(#clip1)"
    />
    <use
        xlink:href="#form2"
        stroke="#000000" stroke-width="16" fill="none"
        clip-path="url(#clip2)"
    />
    <use
        xlink:href="#form3"
        stroke="#000000" stroke-width="16" fill="none"
        clip-path="url(#clip3)"
    />
    <use
        xlink:href="#form4"
        stroke="#000000" stroke-width="16" fill="none"
        clip-path="url(#clip4)"
    />
    <use
        xlink:href="#form5"
        stroke="#000000" stroke-width="16" fill="none"
        clip-path="url(#clip5)"
    />
    <use
        xlink:href="#form6"
        stroke="#000000" stroke-width="16" fill="none"
        clip-path="url(#clip6)"
    />
    <use
        xlink:href="#form7"
        stroke="#000000" stroke-width="16" fill="none"
        clip-path="url(#clip7)"
    />
    <use
        xlink:href="#form8"
        stroke="#000000" stroke-width="16" fill="none"
        clip-path="url(#clip8)"
    />
</svg>

<svg width="192" height="192" xmlns="http://www.w3.org/2000/svg" xmlns:xlink="http://www.w3.org/1999/xlink"><defs><clipPath id="i"><use xlink:href="#a"/></clipPath><clipPath id="j"><use xlink:href="#b"/></clipPath><clipPath id="k"><use xlink:href="#c"/></clipPath><clipPath id="l"><use xlink:href="#d"/></clipPath><clipPath id="m"><use xlink:href="#e"/></clipPath><clipPath id="n"><use xlink:href="#f"/></clipPath><clipPath id="o"><use xlink:href="#g"/></clipPath><clipPath id="p"><use xlink:href="#h"/></clipPath><path id="a" d="M85.911 16.712c-12.305 1.622-23.858 5.974-34.065 12.78-4.788 3.204-10.05 7.359-10.05 7.952 0 .158 11.434 11.672 25.44 25.52l25.401 25.202.237-10.01c.159-5.539.159-21.76.04-36.083l-.198-25.994-1.424.04c-.792.04-3.205.277-5.381.593z"/><path id="b" d="M99.046 26.406c-.316 12.185-.276 36.439.08 51.394l.237 10.485 25.44-25.282c13.967-13.887 25.4-25.44 25.4-25.598 0-.515-4.945-4.471-9.297-7.439-11.474-7.833-24.253-12.344-38.615-13.689L99.284 16Z"/><path id="c" d="M35.387 43.854c-6.766 8.031-11.474 16.221-14.718 25.598-2.414 6.884-3.72 12.938-4.392 20.455L16 92.717l28.447.237c15.628.158 31.81.118 36.004-.04l7.596-.277-25.123-25.44c-13.848-13.967-25.282-25.4-25.48-25.4-.158 0-1.068.949-2.057 2.057z"/><path id="d" d="m129.155 67.276-25.202 25.44 10.484.277c5.737.158 21.92.158 35.965 0 24.648-.277 25.519-.316 25.519-1.029 0-2.215-.95-8.98-1.82-12.898-2.176-9.851-6.172-19.189-11.553-27.18-3.244-4.828-7.399-10.09-7.913-10.09-.158.04-11.632 11.474-25.48 25.48z"/><path id="e" d="m27.672 99.046-11.593.12v.988c0 .515.277 3.047.594 5.618 1.978 15.43 8.19 29.753 18.16 41.741 1.226 1.504 2.374 2.69 2.572 2.69.197 0 11.71-11.433 25.598-25.44l25.282-25.4-11.276-.237c-11.316-.238-27.814-.277-49.337-.08Z"/><path id="f" d="M116.495 112.103c6.963 7.161 18.397 18.674 25.4 25.638l12.7 12.66 1.623-1.78c10.761-11.83 18.002-29.08 19.545-46.41l.237-3.046h-72.166z"/><path id="g" d="M67.236 129.314C53.27 143.28 41.915 154.833 42.034 154.99c.435.752 6.33 5.341 9.812 7.636 10.92 7.32 24.253 11.91 37.863 13.096l3.007.277.198-26.034c.119-14.362.119-30.583-.04-36.043l-.237-10.01z"/><path id="h" d="M99.165 139.917V176l3.086-.237c17.29-1.543 34.54-8.784 46.37-19.545l1.78-1.623-9.89-9.93c-5.421-5.46-16.974-16.894-25.599-25.4l-15.747-15.431Z"/></defs><use xlink:href="#a" stroke="#000" stroke-width="16" fill="none" clip-path="url(#i)"/><use xlink:href="#b" stroke="#000" stroke-width="16" fill="none" clip-path="url(#j)"/><use xlink:href="#c" stroke="#000" stroke-width="16" fill="none" clip-path="url(#k)"/><use xlink:href="#d" stroke="#000" stroke-width="16" fill="none" clip-path="url(#l)"/><use xlink:href="#e" stroke="#000" stroke-width="16" fill="none" clip-path="url(#m)"/><use xlink:href="#f" stroke="#000" stroke-width="16" fill="none" clip-path="url(#n)"/><use xlink:href="#g" stroke="#000" stroke-width="16" fill="none" clip-path="url(#o)"/><use xlink:href="#h" stroke="#000" stroke-width="16" fill="none" clip-path="url(#p)"/></svg>
